X: 1
T: J. F. Mackenzie Esq. of Garrynahine
C: Pipe Major W. Ross
R: strathspey
B:
Z: John Chambers <jc:trillian.mit.edu>
N:
M: C
L: 1/8
K: A
A \
| "A"{B}A2 cf | {g}a>f e>c "D"f>e "E7"(3fga \
| "A"{B}A2 ce | "D"(3fga "E7"{ef}e>c "A"{B}A2 Aa |
| "A"{B}A2 cf | "D"{g}a>f "A"e>c "Bm"f>e "E7"(3fga \
| "A"{d}c2 e<c "Bm"B>c f>e | "D"(3fga "E7"{ef}e>c "A"{B}A2 AB |]
[|"A"A<a a>e "D"f>a "(E7)"f>e | "A"c<e f>e "D"f<a "(E7)"f>e \
| "A"A<a a>e "D"f<a "(E7)"f>e | "D"(3fga "E7"{ef}e>c "A"{B}A2 A>B |
| "A"A<a a>e "D"f>a "(E7)"f>e | "A"c<e f>e "D"f<a "(E7)"f>e \
| "A"{d}c2 e<c "Bm"B>c f>e | "D"(3fga "E7"{ef}e>c "A"{B}A2 A |]
